icons/circle/48/rawstudio.svg

<svg xmlns="http://www.w3.org/2000/svg" viewBox="0 0 48 48">
 <g>
  <path d="m 36.31 5 c 5.859 4.062 9.688 10.831 9.688 18.5 c 0 12.426 -10.07 22.5 -22.5 22.5 c -7.669 0 -14.438 -3.828 -18.5 -9.688 c 1.037 1.822 2.306 3.499 3.781 4.969 c 4.085 3.712 9.514 5.969 15.469 5.969 c 12.703 0 23 -10.298 23 -23 c 0 -5.954 -2.256 -11.384 -5.969 -15.469 c -1.469 -1.475 -3.147 -2.744 -4.969 -3.781 z m 4.969 3.781 c 3.854 4.113 6.219 9.637 6.219 15.719 c 0 12.703 -10.297 23 -23 23 c -6.081 0 -11.606 -2.364 -15.719 -6.219 c 4.16 4.144 9.883 6.719 16.219 6.719 c 12.703 0 23 -10.298 23 -23 c 0 -6.335 -2.575 -12.06 -6.719 -16.219 z" style="opacity:0.05"/>
  <path d="m 41.28 8.781 c 3.712 4.085 5.969 9.514 5.969 15.469 c 0 12.703 -10.297 23 -23 23 c -5.954 0 -11.384 -2.256 -15.469 -5.969 c 4.113 3.854 9.637 6.219 15.719 6.219 c 12.703 0 23 -10.298 23 -23 c 0 -6.081 -2.364 -11.606 -6.219 -15.719 z" style="opacity:0.1"/>
  <path d="m 31.25 2.375 c 8.615 3.154 14.75 11.417 14.75 21.13 c 0 12.426 -10.07 22.5 -22.5 22.5 c -9.708 0 -17.971 -6.135 -21.12 -14.75 a 23 23 0 0 0 44.875 -7 a 23 23 0 0 0 -16 -21.875 z" style="opacity:0.2"/>
 </g>
 <g>
  <path d="m 1 24 c 0 1.142 0.087 2.262 0.248 3.359 a 11.5 11.5 0 0 0 11.252 9.141 11.5 11.5 0 0 0 11.5 -11.5 l 0 -24 c -12.703 0 -23 10.297 -23 23" style="fill:#f5f473;fill-opacity:1"/>
  <path d="m 24 1 c -1.142 0 -2.262 0.087 -3.359 0.248 a 11.5 11.5 0 0 0 -9.141 11.252 a 11.5 11.5 0 0 0 11.5 11.5 l 24 0 c 0 -12.703 -10.297 -23 -23 -23 z" style="fill:#f48b61;fill-opacity:1"/>
  <path d="m 47 24 c 0 -1.142 -0.087 -2.262 -0.248 -3.359 a 11.5 11.5 0 0 0 -11.252 -9.141 11.5 11.5 0 0 0 -11.5 11.5 l 0 24 c 12.703 0 23 -10.297 23 -23" style="fill:#afc6df;fill-opacity:1"/>
  <path d="m 1 24 c 0 12.703 10.297 23 23 23 c 1.142 0 2.262 -0.087 3.359 -0.248 a 11.5 11.5 0 0 0 9.141 -11.252 a 11.5 11.5 0 0 0 -11.5 -11.5 l -1 0 c 0 6.351 -5.149 11.5 -11.5 11.5 c -6.351 0 -11.5 -5.149 -11.5 -11.5 z" style="fill:#7fe490;fill-opacity:1"/>
 </g>
 <g>
  <path d="m 40.03 7.531 c 3.712 4.084 5.969 9.514 5.969 15.469 0 12.703 -10.297 23 -23 23 c -5.954 0 -11.384 -2.256 -15.469 -5.969 4.178 4.291 10.01 6.969 16.469 6.969 c 12.703 0 23 -10.298 23 -23 0 -6.462 -2.677 -12.291 -6.969 -16.469 z" style="opacity:0.1"/>
 </g>
 <g>
  <circle cx="25" cy="25" r="12" style="fill:#000;opacity:1;fill-opacity:0.098;stroke:none;fill-rule:nonzero"/>
  <g>
   <circle cx="24" cy="24" r="12" style="fill:#4b4b4b;opacity:1;fill-opacity:1;stroke:none;fill-rule:nonzero"/>
   <path d="m 24 14 c -5.523 0 -10 4.477 -10 10 0 5.523 4.477 10 10 10 l 0 -12 a 3 3 0 0 1 -3 -3 3 3 0 0 1 3 -3 l 0 -2 z m 0 2 0 6 a 3 3 0 0 0 3 -3 3 3 0 0 0 -3 -3 z m -5 8 a 3 3 0 0 1 3 3 3 3 0 0 1 -3 3 3 3 0 0 1 -3 -3 3 3 0 0 1 3 -3 z m 10 0 a 3 3 0 0 0 -3 3 3 3 0 0 0 3 3 3 3 0 0 0 3 -3 3 3 0 0 0 -3 -3 z" style="fill:#dedede;opacity:1;fill-opacity:1;stroke:none;fill-rule:nonzero"/>
  </g>
 </g>
</svg>

<svg xmlns="http://www.w3.org/2000/svg" viewBox="0 0 48 48">
  <path d="M36.31 5c5.859 4.062 9.688 10.831 9.688 18.5 0 12.426-10.07 22.5-22.5 22.5-7.669 0-14.438-3.828-18.5-9.688a23.24 23.24 0 0 0 3.781 4.969 22.923 22.923 0 0 0 15.469 5.969c12.703 0 23-10.298 23-23a22.92 22.92 0 0 0-5.969-15.469A23.216 23.216 0 0 0 36.31 5zm4.969 3.781A22.911 22.911 0 0 1 47.498 24.5c0 12.703-10.297 23-23 23a22.909 22.909 0 0 1-15.719-6.219C12.939 45.425 18.662 48 24.998 48c12.703 0 23-10.298 23-23 0-6.335-2.575-12.06-6.719-16.219z" opacity=".05"/>
  <path d="M41.28 8.781a22.923 22.923 0 0 1 5.969 15.469c0 12.703-10.297 23-23 23A22.92 22.92 0 0 1 8.78 41.281 22.911 22.911 0 0 0 24.499 47.5c12.703 0 23-10.298 23-23A22.909 22.909 0 0 0 41.28 8.781z" opacity=".1"/>
  <path d="M31.25 2.375C39.865 5.529 46 13.792 46 23.505c0 12.426-10.07 22.5-22.5 22.5-9.708 0-17.971-6.135-21.12-14.75a23 23 0 0 0 44.875-7 23 23 0 0 0-16-21.875z" opacity=".2"/>
  <path d="M1 24c0 1.142.087 2.262.248 3.359A11.5 11.5 0 0 0 12.5 36.5 11.5 11.5 0 0 0 24 25V1C11.297 1 1 11.297 1 24" fill="#f5f473"/>
  <path d="M24 1c-1.142 0-2.262.087-3.359.248A11.5 11.5 0 0 0 11.5 12.5 11.5 11.5 0 0 0 23 24h24C47 11.297 36.703 1 24 1z" fill="#f48b61"/>
  <path d="M47 24c0-1.142-.087-2.262-.248-3.359A11.5 11.5 0 0 0 35.5 11.5 11.5 11.5 0 0 0 24 23v24c12.703 0 23-10.297 23-23" fill="#afc6df"/>
  <path d="M1 24c0 12.703 10.297 23 23 23 1.142 0 2.262-.087 3.359-.248A11.5 11.5 0 0 0 36.5 35.5 11.5 11.5 0 0 0 25 24h-1c0 6.351-5.149 11.5-11.5 11.5S1 30.351 1 24z" fill="#7fe490"/>
  <g>
    <path d="M40.03 7.531A22.922 22.922 0 0 1 45.999 23c0 12.703-10.297 23-23 23A22.92 22.92 0 0 1 7.53 40.031C11.708 44.322 17.54 47 23.999 47c12.703 0 23-10.298 23-23 0-6.462-2.677-12.291-6.969-16.469z" opacity=".1"/>
  </g>
  <g>
    <circle cx="25" cy="25" r="12" fill-opacity=".098"/>
    <circle cx="24" cy="24" r="12" fill="#4b4b4b"/>
    <path d="M24 14c-5.523 0-10 4.477-10 10s4.477 10 10 10V22a3 3 0 0 1-3-3 3 3 0 0 1 3-3v-2zm0 2v6a3 3 0 0 0 3-3 3 3 0 0 0-3-3zm-5 8a3 3 0 0 1 3 3 3 3 0 0 1-3 3 3 3 0 0 1-3-3 3 3 0 0 1 3-3zm10 0a3 3 0 0 0-3 3 3 3 0 0 0 3 3 3 3 0 0 0 3-3 3 3 0 0 0-3-3z" fill="#dedede"/>
  </g>
</svg>
